resources/cursor.svg

<?xml version="1.0" encoding="UTF-8" standalone="no"?>
<!-- Created with Inkscape (http://www.inkscape.org/) -->

<svg
   xmlns:dc="http://purl.org/dc/elements/1.1/"
   xmlns:cc="http://creativecommons.org/ns#"
   xmlns:rdf="http://www.w3.org/1999/02/22-rdf-syntax-ns#"
   xmlns:svg="http://www.w3.org/2000/svg"
   xmlns="http://www.w3.org/2000/svg"
   xmlns:xlink="http://www.w3.org/1999/xlink"
   xmlns:sodipodi="http://sodipodi.sourceforge.net/DTD/sodipodi-0.dtd"
   xmlns:inkscape="http://www.inkscape.org/namespaces/inkscape"
   width="744.09448819"
   height="1052.3622047"
   id="svg2"
   version="1.1"
   inkscape:version="0.48.2 r9819"
   sodipodi:docname="cursor.svg">
  <defs
     id="defs4">
    <linearGradient
       id="linearGradient3796">
      <stop
         style="stop-color:#810000;stop-opacity:1;"
         offset="0"
         id="stop3798" />
      <stop
         style="stop-color:#ffc6c6;stop-opacity:1;"
         offset="1"
         id="stop3800" />
    </linearGradient>
    <linearGradient
       inkscape:collect="always"
       xlink:href="#linearGradient3796"
       id="linearGradient3804"
       x1="232.99594"
       y1="555.33801"
       x2="323.38361"
       y2="477.91672"
       gradientUnits="userSpaceOnUse" />
    <linearGradient
       inkscape:collect="always"
       xlink:href="#linearGradient3796"
       id="linearGradient2998"
       gradientUnits="userSpaceOnUse"
       x1="232.99594"
       y1="555.33801"
       x2="323.38361"
       y2="477.91672" />
    <linearGradient
       inkscape:collect="always"
       xlink:href="#linearGradient3796"
       id="linearGradient3000"
       gradientUnits="userSpaceOnUse"
       x1="232.99594"
       y1="555.33801"
       x2="323.38361"
       y2="477.91672" />
    <linearGradient
       inkscape:collect="always"
       xlink:href="#linearGradient3796"
       id="linearGradient3002"
       gradientUnits="userSpaceOnUse"
       x1="232.99594"
       y1="555.33801"
       x2="323.38361"
       y2="477.91672" />
    <linearGradient
       inkscape:collect="always"
       xlink:href="#linearGradient3796"
       id="linearGradient3004"
       gradientUnits="userSpaceOnUse"
       x1="232.99594"
       y1="555.33801"
       x2="323.38361"
       y2="477.91672" />
    <linearGradient
       inkscape:collect="always"
       xlink:href="#linearGradient3796"
       id="linearGradient3774"
       gradientUnits="userSpaceOnUse"
       x1="232.99594"
       y1="555.33801"
       x2="323.38361"
       y2="477.91672" />
    <linearGradient
       inkscape:collect="always"
       xlink:href="#linearGradient3796"
       id="linearGradient3776"
       gradientUnits="userSpaceOnUse"
       x1="232.99594"
       y1="555.33801"
       x2="323.38361"
       y2="477.91672" />
    <linearGradient
       inkscape:collect="always"
       xlink:href="#linearGradient3796"
       id="linearGradient3778"
       gradientUnits="userSpaceOnUse"
       x1="232.99594"
       y1="555.33801"
       x2="323.38361"
       y2="477.91672" />
  </defs>
  <sodipodi:namedview
     id="base"
     pagecolor="#ffffff"
     bordercolor="#666666"
     borderopacity="1.0"
     inkscape:pageopacity="0.0"
     inkscape:pageshadow="2"
     inkscape:zoom="0.749148"
     inkscape:cx="367.40566"
     inkscape:cy="400.23121"
     inkscape:document-units="px"
     inkscape:current-layer="layer1"
     showgrid="false"
     inkscape:window-width="1280"
     inkscape:window-height="752"
     inkscape:window-x="0"
     inkscape:window-y="0"
     inkscape:window-maximized="1" />
  <metadata
     id="metadata7">
    <rdf:RDF>
      <cc:Work
         rdf:about="">
        <dc:format>image/svg+xml</dc:format>
        <dc:type
           rdf:resource="http://purl.org/dc/dcmitype/StillImage" />
        <dc:title />
      </cc:Work>
    </rdf:RDF>
  </metadata>
  <g
     inkscape:label="Layer 1"
     inkscape:groupmode="layer"
     id="layer1">
    <g
       id="g3791"
       style="fill:url(#linearGradient3804);fill-opacity:1"
       transform="translate(-140.15922,-32.036393)">
      <g
         id="g3787"
         style="fill:url(#linearGradient3778);fill-opacity:1">
        <path
           style="fill:url(#linearGradient3774);fill-opacity:1;fill-rule:evenodd;stroke:#000000;stroke-width:1.57099998;stroke-linecap:butt;stroke-linejoin:miter;stroke-miterlimit:4;stroke-opacity:1;stroke-dasharray:none"
           d="m 282.0625,458.9375 0,9.71875 c 8.75417,0.91675 16.65997,4.64854 22.84375,10.25 l -8.46875,14.0625 14.34375,-7.5 c 3.91687,5.51682 6.48344,12.07249 7.21875,19.15625 l 8.96875,0 c -0.65573,-8.6122 -3.51574,-16.60758 -8,-23.4375 L 327.9375,476.5 314.5,463.03125 309.84375,470.75 c -7.59965,-6.54888 -17.21776,-10.83263 -27.78125,-11.8125 z m -11.09375,0.1875 c -10.60057,1.3714 -20.14662,6.09906 -27.5625,13.0625 L 237.875,463.03125 224.4375,476.5 l 10.78125,5.625 c -4.1345,6.6192 -6.75066,14.28185 -7.375,22.5 l 9.8125,0 c 0.68123,-6.55107 2.94385,-12.63414 6.375,-17.875 l 11.90625,6.21875 -7.28125,-12.0625 c 5.85252,-6.11087 13.60842,-10.38666 22.3125,-11.875 l 0,-9.90625 z m -42.75,56.59375 c 1.33727,9.09736 5.15151,17.39352 10.71875,24.1875 l -14.5,7.59375 13.4375,13.46875 8.34375,-13.84375 c 6.95608,5.61126 15.4434,9.39162 24.75,10.59375 l 0,-9.09375 c -7.55163,-1.28792 -14.37809,-4.67414 -19.875,-9.53125 l 4.84375,-8.0625 -8.46875,4.4375 c -4.80498,-5.47147 -8.15208,-12.25552 -9.4375,-19.75 l -9.8125,0 z m 89.40625,0 c -1.38045,8.02658 -5.12654,15.2439 -10.5,20.90625 l -10.6875,-5.59375 5.9375,9.84375 c -5.75183,4.41501 -12.71236,7.33042 -20.3125,8.125 l 0,8.90625 c 9.25796,-0.85761 17.79323,-4.24253 24.875,-9.46875 L 314.5,560.96875 327.9375,547.5 315.125,540.8125 c 5.98187,-6.95478 10.07411,-15.58336 11.46875,-25.09375 l -8.96875,0 z"
           id="path2985"
           inkscape:connector-curvature="0" />
        <path
           sodipodi:type="arc"
           style="fill:url(#linearGradient3776);fill-opacity:1;stroke:#000000;stroke-width:1.39999998;stroke-miterlimit:4;stroke-opacity:1;stroke-dasharray:none"
           id="path3758"
           sodipodi:cx="273.61188"
           sodipodi:cy="510.18195"
           sodipodi:rx="5.8000674"
           sodipodi:ry="6.0522447"
           d="m 279.41194,510.18195 c 0,3.34256 -2.59677,6.05224 -5.80006,6.05224 -3.20329,0 -5.80007,-2.70968 -5.80007,-6.05224 0,-3.34257 2.59678,-6.05225 5.80007,-6.05225 3.20329,0 5.80006,2.70968 5.80006,6.05225 z"
           transform="translate(3.5304759,0)" />
      </g>
    </g>
    <g
       style="fill:url(#linearGradient3004);fill-opacity:1"
       id="g2990"
       transform="translate(0,140)">
      <g
         style="fill:url(#linearGradient3002);fill-opacity:1"
         id="g2992">
        <path
           id="path2994"
           d="m 282.0625,458.9375 0,9.71875 c 8.75417,0.91675 16.65997,4.64854 22.84375,10.25 l -8.46875,14.0625 14.34375,-7.5 c 3.91687,5.51682 6.48344,12.07249 7.21875,19.15625 l 8.96875,0 c -0.65573,-8.6122 -3.51574,-16.60758 -8,-23.4375 L 327.9375,476.5 314.5,463.03125 309.84375,470.75 c -7.59965,-6.54888 -17.21776,-10.83263 -27.78125,-11.8125 z m -11.09375,0.1875 c -10.60057,1.3714 -20.14662,6.09906 -27.5625,13.0625 L 237.875,463.03125 224.4375,476.5 l 10.78125,5.625 c -4.1345,6.6192 -6.75066,14.28185 -7.375,22.5 l 9.8125,0 c 0.68123,-6.55107 2.94385,-12.63414 6.375,-17.875 l 11.90625,6.21875 -7.28125,-12.0625 c 5.85252,-6.11087 13.60842,-10.38666 22.3125,-11.875 l 0,-9.90625 z m -42.75,56.59375 c 1.33727,9.09736 5.15151,17.39352 10.71875,24.1875 l -14.5,7.59375 13.4375,13.46875 8.34375,-13.84375 c 6.95608,5.61126 15.4434,9.39162 24.75,10.59375 l 0,-9.09375 c -7.55163,-1.28792 -14.37809,-4.67414 -19.875,-9.53125 l 4.84375,-8.0625 -8.46875,4.4375 c -4.80498,-5.47147 -8.15208,-12.25552 -9.4375,-19.75 l -9.8125,0 z m 89.40625,0 c -1.38045,8.02658 -5.12654,15.2439 -10.5,20.90625 l -10.6875,-5.59375 5.9375,9.84375 c -5.75183,4.41501 -12.71236,7.33042 -20.3125,8.125 l 0,8.90625 c 9.25796,-0.85761 17.79323,-4.24253 24.875,-9.46875 L 314.5,560.96875 327.9375,547.5 315.125,540.8125 c 5.98187,-6.95478 10.07411,-15.58336 11.46875,-25.09375 l -8.96875,0 z"
           style="fill:url(#linearGradient2998);fill-opacity:1;fill-rule:evenodd;stroke:#000000;stroke-width:1.57099998;stroke-linecap:butt;stroke-linejoin:miter;stroke-miterlimit:4;stroke-opacity:1;stroke-dasharray:none"
           inkscape:connector-curvature="0" />
        <path
           transform="translate(3.5304759,0)"
           d="m 279.41194,510.18195 c 0,3.34256 -2.59677,6.05224 -5.80006,6.05224 -3.20329,0 -5.80007,-2.70968 -5.80007,-6.05224 0,-3.34257 2.59678,-6.05225 5.80007,-6.05225 3.20329,0 5.80006,2.70968 5.80006,6.05225 z"
           sodipodi:ry="6.0522447"
           sodipodi:rx="5.8000674"
           sodipodi:cy="510.18195"
           sodipodi:cx="273.61188"
           id="path2996"
           style="fill:url(#linearGradient3000);fill-opacity:1;stroke:#000000;stroke-width:1.39999998;stroke-miterlimit:4;stroke-opacity:1;stroke-dasharray:none"
           sodipodi:type="arc" />
      </g>
    </g>
  </g>
</svg>

<?xml version="1.0" encoding="UTF-8" standalone="no"?>
<!-- Created with Inkscape (http://www.inkscape.org/) -->

<svg
   xmlns:dc="http://purl.org/dc/elements/1.1/"
   xmlns:cc="http://creativecommons.org/ns#"
   xmlns:rdf="http://www.w3.org/1999/02/22-rdf-syntax-ns#"
   xmlns:svg="http://www.w3.org/2000/svg"
   xmlns="http://www.w3.org/2000/svg"
   xmlns:xlink="http://www.w3.org/1999/xlink"
   xmlns:sodipodi="http://sodipodi.sourceforge.net/DTD/sodipodi-0.dtd"
   xmlns:inkscape="http://www.inkscape.org/namespaces/inkscape"
   width="744.09448819"
   height="1052.3622047"
   id="svg2"
   version="1.1"
   inkscape:version="0.48.2 r9819"
   sodipodi:docname="New document 1">
  <defs
     id="defs4">
    <linearGradient
       inkscape:collect="always"
       id="linearGradient3796">
      <stop
         style="stop-color:#810000;stop-opacity:1;"
         offset="0"
         id="stop3798" />
      <stop
         style="stop-color:#810000;stop-opacity:0;"
         offset="1"
         id="stop3800" />
    </linearGradient>
    <linearGradient
       inkscape:collect="always"
       xlink:href="#linearGradient3796"
       id="linearGradient3804"
       x1="232.99594"
       y1="555.33801"
       x2="323.38361"
       y2="477.91672"
       gradientUnits="userSpaceOnUse" />
  </defs>
  <sodipodi:namedview
     id="base"
     pagecolor="#ffffff"
     bordercolor="#666666"
     borderopacity="1.0"
     inkscape:pageopacity="0.0"
     inkscape:pageshadow="2"
     inkscape:zoom="0.749148"
     inkscape:cx="603.67406"
     inkscape:cy="400.23121"
     inkscape:document-units="px"
     inkscape:current-layer="layer1"
     showgrid="false"
     inkscape:window-width="1280"
     inkscape:window-height="752"
     inkscape:window-x="0"
     inkscape:window-y="0"
     inkscape:window-maximized="1" />
  <metadata
     id="metadata7">
    <rdf:RDF>
      <cc:Work
         rdf:about="">
        <dc:format>image/svg+xml</dc:format>
        <dc:type
           rdf:resource="http://purl.org/dc/dcmitype/StillImage" />
        <dc:title></dc:title>
      </cc:Work>
    </rdf:RDF>
  </metadata>
  <g
     inkscape:label="Layer 1"
     inkscape:groupmode="layer"
     id="layer1">
    <g
       id="g3791"
       style="fill:url(#linearGradient3804);fill-opacity:1">
      <g
         id="g3787"
         style="fill:url(#linearGradient3804);fill-opacity:1">
        <path
           style="fill:url(#linearGradient3804);fill-opacity:1;fill-rule:evenodd;stroke:#000000;stroke-width:1.57099999999999995;stroke-linecap:butt;stroke-linejoin:miter;stroke-miterlimit:4;stroke-opacity:1;stroke-dasharray:none"
           d="M 282.0625 458.9375 L 282.0625 468.65625 C 290.81667 469.573 298.72247 473.30479 304.90625 478.90625 L 296.4375 492.96875 L 310.78125 485.46875 C 314.69812 490.98557 317.26469 497.54124 318 504.625 L 326.96875 504.625 C 326.31302 496.0128 323.45301 488.01742 318.96875 481.1875 L 327.9375 476.5 L 314.5 463.03125 L 309.84375 470.75 C 302.2441 464.20112 292.62599 459.91737 282.0625 458.9375 z M 270.96875 459.125 C 260.36818 460.4964 250.82213 465.22406 243.40625 472.1875 L 237.875 463.03125 L 224.4375 476.5 L 235.21875 482.125 C 231.08425 488.7442 228.46809 496.40685 227.84375 504.625 L 237.65625 504.625 C 238.33748 498.07393 240.6001 491.99086 244.03125 486.75 L 255.9375 492.96875 L 248.65625 480.90625 C 254.50877 474.79538 262.26467 470.51959 270.96875 469.03125 L 270.96875 459.125 z M 228.21875 515.71875 C 229.55602 524.81611 233.37026 533.11227 238.9375 539.90625 L 224.4375 547.5 L 237.875 560.96875 L 246.21875 547.125 C 253.17483 552.73626 261.66215 556.51662 270.96875 557.71875 L 270.96875 548.625 C 263.41712 547.33708 256.59066 543.95086 251.09375 539.09375 L 255.9375 531.03125 L 247.46875 535.46875 C 242.66377 529.99728 239.31667 523.21323 238.03125 515.71875 L 228.21875 515.71875 z M 317.625 515.71875 C 316.24455 523.74533 312.49846 530.96265 307.125 536.625 L 296.4375 531.03125 L 302.375 540.875 C 296.62317 545.29001 289.66264 548.20542 282.0625 549 L 282.0625 557.90625 C 291.32046 557.04864 299.85573 553.66372 306.9375 548.4375 L 314.5 560.96875 L 327.9375 547.5 L 315.125 540.8125 C 321.10687 533.85772 325.19911 525.22914 326.59375 515.71875 L 317.625 515.71875 z "
           id="path2985" />
        <path
           sodipodi:type="arc"
           style="fill:url(#linearGradient3804);fill-opacity:1;stroke-width:1.39999999999999991;stroke-miterlimit:4;stroke-dasharray:none;stroke:#000000;stroke-opacity:1"
           id="path3758"
           sodipodi:cx="273.61188"
           sodipodi:cy="510.18195"
           sodipodi:rx="5.8000674"
           sodipodi:ry="6.0522447"
           d="m 279.41194,510.18195 c 0,3.34256 -2.59677,6.05224 -5.80006,6.05224 -3.20329,0 -5.80007,-2.70968 -5.80007,-6.05224 0,-3.34257 2.59678,-6.05225 5.80007,-6.05225 3.20329,0 5.80006,2.70968 5.80006,6.05225 z"
           transform="translate(3.5304759,0)" />
      </g>
    </g>
  </g>
</svg>
